component-icons/svg/donutcharts.svg

<?xml version="1.0" encoding="utf-8"?>
<!-- Generator: Adobe Illustrator 14.0.0, SVG Export Plug-In . SVG Version: 6.00 Build 43363)  -->
<!DOCTYPE svg PUBLIC "-//W3C//DTD SVG 1.1//EN" "http://www.w3.org/Graphics/SVG/1.1/DTD/svg11.dtd">
<svg version="1.1" id="Layer_1" xmlns="http://www.w3.org/2000/svg" xmlns:xlink="http://www.w3.org/1999/xlink" x="0px" y="0px"
	 width="24px" height="24px" viewBox="0 0 24 24" enable-background="new 0 0 24 24" xml:space="preserve">
<path fill="#818181" d="M11.024,6.065V4.044c-3.615,0.453-6.479,3.313-6.931,6.93h2.021C6.537,8.464,8.515,6.488,11.024,6.065z
	 M12.024,17.975c-2.972,0-5.433-2.164-5.91-5H4.093c0.493,3.945,3.853,7,7.931,7c4.417,0,8-3.582,8-8c0-4.079-3.055-7.438-7-7.931
	v2.021c2.836,0.477,5,2.938,5,5.91C18.023,15.287,15.338,17.975,12.024,17.975z M21.973,10.975h2.004
	c-0.482-5.827-5.125-10.468-10.953-10.95v2C17.748,2.494,21.504,6.251,21.973,10.975z M2.024,11.975c0-5.185,3.946-9.448,9-9.949v-2
	c-6.158,0.509-11,5.66-11,11.949c0,2.697,0.9,5.177,2.403,7.182l1.427-1.427C2.706,16.102,2.024,14.119,2.024,11.975z
	 M12.024,21.975c-2.656,0-5.063-1.043-6.854-2.73l-1.414,1.414c2.152,2.051,5.06,3.316,8.268,3.316c6.289,0,11.441-4.842,11.949-11
	h-2C21.471,18.027,17.209,21.975,12.024,21.975z"/>
</svg>

<svg id="Layer_1" data-name="Layer 1" xmlns="http://www.w3.org/2000/svg" viewBox="0 0 24 24">
  <defs>
    <style>
      .cls-1 {
        fill: gray;
      }
    </style>
  </defs>
  <title>donutcharts</title>
  <path class="cls-1" d="M11,6.05V4A8,8,0,0,0,4.08,11h2A6,6,0,0,1,11,6.05ZM22,11h2A12,12,0,0,0,13,0V2A10,10,0,0,1,22,11ZM12,18A6,6,0,0,1,6.1,13h-2A8,8,0,1,0,13,4v2A6,6,0,0,1,12,18Zm0,4a10,10,0,0,1-6.86-2.73L3.74,20.67A12,12,0,0,0,24,13H22A10,10,0,0,1,12,22ZM2,12A10,10,0,0,1,11,2V0A12,12,0,0,0,2.41,19.17l1.43-1.43A10,10,0,0,1,2,12Z"/>
</svg>
